icons/modo.svg

<!--
  - The MIT License (MIT)
  -
  - Copyright (c) 2015-2024 Elior "Mallowigi" Boukhobza
  -
  - Permission is hereby granted, free of charge, to any person obtaining a copy
  - of this software and associated documentation files (the "Software"), to deal
  - in the Software without restriction, including without limitation the rights
  - to use, copy, modify, merge, publish, distribute, sublicense, and/or sell
  - copies of the Software, and to permit persons to whom the Software is
  - furnished to do so, subject to the following conditions:
  -
  - The above copyright notice and this permission notice shall be included in all
  - copies or substantial portions of the Software.
  -
  - THE SOFTWARE IS PROVIDED "AS IS", WITHOUT WARRANTY OF ANY KIND, EXPRESS OR
  - IMPLIED, INCLUDING BUT NOT LIMITED TO THE WARRANTIES OF MERCHANTABILITY,
  - FITNESS FOR A PARTICULAR PURPOSE AND NONINFRINGEMENT. IN NO EVENT SHALL THE
  - AUTHORS OR COPYRIGHT HOLDERS BE LIABLE FOR ANY CLAIM, DAMAGES OR OTHER
  - LIABILITY, WHETHER IN AN ACTION OF CONTRACT, TORT OR OTHERWISE, ARISING FROM,
  - OUT OF OR IN CONNECTION WITH THE SOFTWARE OR THE USE OR OTHER DEALINGS IN THE
  - SOFTWARE.
  -
  -->

<svg  version="1.1" xmlns="http://www.w3.org/2000/svg" viewBox="0 0 512 512" width="16px" height="16px">
  <path fill="#f4a938" data-iconColor="Modo"
        d="M255.232193,205.6182861c-1.5555878-25.5590973,58.8258209-44.0895081,75.7005463-23.5284424c14.2048035,52.6429749,35.2354126,120.3438721,32.2243652,162.6539917c-3.5973816,37.2679138-39.9805298,58.7350769-77.2349548,25.5747681c-32.3672791-31.6577148-79.3638916-85.884552-114.5733795-100.2532959c1.0225677-9.5420532,4.2597351-15.0008087,9.7179108-16.3669586c-10.5713043,1.7379761-15.4367676,9.5034943-15.3443756,22.5064545c0,6.4813538,2.0457153,21.9133911,6.1377563,46.289093c7.7111359,43.366394,5.2771301,47.1043396-6.9049835,57.5420532c-45.1705246,27.1185913-57.1052704,1.8450317-67.7723999-38.6169128c-27.4974365-134.4035034,55.2428894-188.7144012,161.6302795-87.2088318c11.1300964,30.2211304,23.9994202,69.4710999,28.6436157,94.6250916C285.5415649,318.750824,257.3555908,234.1928406,255.232193,205.6182861z M278.249939,173.9063568c-11.5965271,5.1146088-19.7805786,11.5959473-24.5521851,19.4364166c-4.0914459-38.8734131,2.5581665-64.9588776,19.9476929-78.2581177C269.2104187,127.7043304,270.744873,147.3084564,278.249939,173.9063568z M331.700531,142.7051392c0.1671143,7.1609039-0.5203857,11.3430634-2.09729,12.3905792c-1.3661499,3.0688782-1.571106,9.6034241-0.2049561,18.8106384c-11.618866-6.5974121-32.4955139-6.1745911-46.5450134-1.5350189c-6.161377-22.8069-9.5174866-44.4541473-4.0926208-57.2866821c1.3591309-3.0688782,3.2371521-5.1146011,5.6270447-6.1377563C311.3109131,100.7935562,332.4075623,120.0947266,331.700531,142.7051392z M334.0016174,157.5382385c6.533905-14.6553345,2.4562988-45.2744293-25.0628967-53.1946564c14.6572266,1.0231552,31.5372009,9.0389328,50.6376343,24.0403137c3.0135498,7.345932-1.8473206,28.8813324-16.368103,42.4530029c-3.7560425-1.358551-6.8249207-2.3811188-9.2066345-3.0688782C333.3481445,164.0075836,333.2711182,160.5563507,334.0016174,157.5382385z M335.0253601,176.4633636c-0.3435974-1.0225677-0.5118713-2.2134247-0.5118713-3.5801544c1.3591309,0.3435822,2.7252808,0.8548737,4.0914307,1.5344391C337.5823669,175.1048126,336.3833313,175.7843781,335.0253601,176.4633636z M357.0193481,221.9858246c-1.3673096-1.358551-5.9706421-5.4505768-13.8110962-12.2754974c-3.2026672-10.2727051-5.8002014-19.8812714-7.1603394-28.1317749c3.4042969-2.0463104,5.9624634-3.7484436,7.6722107-5.1151886c10.2303467,4.4356232,23.3531494,12.6196899,39.3847046,24.5516052C371.4025269,211.5735016,361.2932739,220.2417603,357.0193481,221.9858246z M365.20224,132.9872131c9.3493042,6.646225,26.0125122,24.2088318,42.9654541,41.4304352c-5.8023376,7.5044861-12.962677,15.3443909-21.4821472,23.5284424c-15.6891174-11.5883331-28.6436157-19.948288-38.8739929-25.0628815C359.6610107,160.7542725,365.971344,144.7155151,365.20224,132.9872131z M387.1962585,204.083847c8.1840515,6.4813385,15.0019836,12.1078186,20.4595642,16.8794098c-2.3887024,5.4581909-8.5276489,12.4514008-18.413269,20.9708557c-6.1377258-1.0231476-15.5208435-6.6496124-28.1317444-16.8794098C367.7623291,221.4603119,378.7158203,211.3440552,387.1962585,204.083847z M429.6498413,205.6182861c-2.7088623,3.3728638-9.2808228,7.5557404-18.413269,12.2755127c-6.4813232-5.4499969-13.2980652-11.0764771-20.4595642-16.87883c7.8404846-7.8398895,14.6572266-15.5126648,20.4595642-23.0171661C420.2951965,188.1682739,430.378479,199.7277985,429.6498413,205.6182861z M397.4266357,240.910965c8.1840515-7.4963074,13.1227722-13.6340637,14.8325195-18.413269c4.0926208-1.3591309,9.0313416-4.0920258,14.8336792-8.1840668C422.7591248,225.6619568,408.156189,237.0891113,397.4266357,240.910965z M127.711113,477.5468445c-170.2814331-98.1691284-170.2814941-344.92453-0.000061-443.093689S512,59.6616783,512,256S297.9925537,575.7160034,127.711113,477.5468445z M485.9140015,256c0-176.3317566-192.20047-287.1374512-345.1304932-198.9715729s-152.9299774,309.7772827,0.000061,397.9431152S485.9140015,432.3317566,485.9140015,256z"/>
</svg>

<svg xmlns="http://www.w3.org/2000/svg" viewBox="0 0 512 512"><path fill="#f4a938" d="M255.232 205.618c-1.555-25.559 58.826-44.09 75.7-23.528 14.206 52.643 35.236 120.344 32.225 162.654-3.597 37.268-39.98 58.735-77.235 25.575-32.367-31.658-79.364-85.885-114.573-100.254q1.532-14.315 9.718-16.367c-10.572 1.738-15.437 9.504-15.345 22.507q0 9.723 6.138 46.289c7.711 43.366 5.277 47.104-6.905 57.542-45.17 27.119-57.105 1.845-67.772-38.617-27.498-134.403 55.243-188.714 161.63-87.209 11.13 30.221 24 69.471 28.644 94.625-1.915-30.084-30.101-114.642-32.225-143.217m23.018-31.712q-17.395 7.674-24.552 19.437-6.137-58.311 19.947-78.258c-4.435 12.62-2.9 32.223 4.605 58.821m53.45-31.2c.168 7.16-.52 11.342-2.097 12.39-1.366 3.069-1.57 9.603-.205 18.81-11.619-6.597-32.495-6.174-46.545-1.535-6.161-22.807-9.517-44.454-4.092-57.286q2.04-4.604 5.627-6.138c26.923-8.153 48.02 11.148 47.313 33.758m2.302 14.832c6.534-14.655 2.456-45.274-25.063-53.194q21.986 1.536 50.637 24.04c3.014 7.346-1.847 28.881-16.368 42.453q-5.634-2.038-9.206-3.069c-.654-3.76-.73-7.212 0-10.23m1.023 18.925q-.513-1.531-.512-3.58 2.042.515 4.092 1.535c-1.023.687-2.222 1.366-3.58 2.045m21.994 45.523q-2.05-2.038-13.81-12.276c-3.203-10.272-5.8-19.88-7.161-28.131 3.404-2.047 5.962-3.749 7.672-5.116 10.23 4.436 23.353 12.62 39.385 24.552-11.702 10.559-21.812 19.227-26.086 20.97m8.183-88.999c9.35 6.646 26.013 24.209 42.966 41.43-5.803 7.505-12.963 15.345-21.482 23.53-15.69-11.59-28.644-19.95-38.874-25.064 11.849-12.129 18.16-28.167 17.39-39.896m21.994 71.097q12.274 9.722 20.46 16.88c-2.389 5.457-8.528 12.45-18.413 20.97-6.138-1.023-15.521-6.65-28.132-16.88 6.651-3.594 17.605-13.71 26.085-20.97m42.454 1.534c-2.709 3.373-9.281 7.556-18.413 12.276a1456 1456 0 0 0-20.46-16.879c7.84-7.84 14.657-15.513 20.46-23.017 9.058 10.17 19.141 21.73 18.413 27.62m-32.223 35.293c8.184-7.496 13.122-13.634 14.832-18.413 4.093-1.36 9.031-4.092 14.834-8.184-4.334 11.348-18.937 22.775-29.666 26.597M127.71 477.547c-170.281-98.17-170.281-344.925 0-443.094S512 59.662 512 256 297.993 575.716 127.711 477.547M485.914 256c0-176.332-192.2-287.137-345.13-198.972s-152.93 309.778 0 397.944 345.13-22.64 345.13-198.972" data-iconColor="Modo"/></svg>
